X: 21102
Q: "Plaintive"
M: 3/4
L: 1/8
K: Gm
|:\
d2 g2 ^f2 | ~g3 a b2 | d2 g2T^f3/e//f// | g4 ab |\
g=fedcB | ~B3 cdc | B2G2 ^F2 | G4 :|
|: F/G/A |\
(gf)(ed)(cB) | B3 cdc | B>A G2 ^F2 | G4 H:|


